X:1
T:Title
%%score { ( 1 4 ) | ( 2 3 ) }
L:1/8
M:6/8
K:Ab
V:1 treble nm="Grand Piano"
V:4 treble 
V:2 bass 
V:3 bass 
V:1
 z3 z2[Q:1/4=104] [CE] | [CE]2 [CF] [CF]2 [CE] | [CE]2 [CF] [CF]2 [CE] | [Ec]2 [Ec] [Fd]2 [Ec] | %4
[M:5/8] B3 F2 |[M:1/8] [B,FB] |[M:3/4] [B,GB]2 [B,FA] [B,FA]2 [B,EG] | %7
 [B,EG]2 [B,DF] [B,DF]2 [B,GB] | [B,FA]2 [B,EG] [G,DF]2 [G,EG] |[M:5/8] [DF]3 [CE]2 |[M:1/8] [CE] | %11
[M:3/4] [CE]2 [CF] [CF]2 [CE] | [CE]2 [CF] [CF]2 [CE] | [Ec]2 [Ec] [Fd]2 [Ec] |[M:5/8] B3 F2 | %15
[M:1/8] [B,FB] |[M:3/4] [B,AB]2 [B,AB] [=DAc]2 [DAB] | [EGB]2 [Ge] [EGB]2 [B,EG] | %18
 [=DFB]2 [CDA] [B,DG]2 [A,DF] | E3- [Ed]3 |[Q:1/4=113] [Ec]3 [DB]3 | [CA]3 [CF]3 | %22
 [CF][CF] [CG]A z [A,CA] | G6 | d3 c3 | B3 A3 | GA GF GF | E6 | [Ec]3 [DB]3 | [CA]3 [CF]3 | %30
 [CE][CF] [CG][CA] [DB][Ec] | d2- [Fd-] [Fd]2 [Fd] | c2 c E2 c | B2 B [=DF]3 | GG A B2 c | %35
[M:5/8] [CA]-[CA]- [CA]3 |] %36
V:2
 z3 z2 [A,,A,] | [A,,A,]2 [A,,A,] [A,,A,]2 [A,,A,] | [A,,A,]2 [A,,A,] [A,,A,]2 [A,,A,] | %3
 [A,,A,]2 [A,,A,] [A,,A,]2 [A,,A,] |[M:5/8] [D,D]3- [D,B,D]2 |[M:1/8] D, |[M:3/4] E,2 E, E,2 E, | %7
 E,2 E, E,2 E, | E,2 E, E,2 E, |[M:5/8] [A,,A,]-[A,,A,]- [A,,A,]3 |[M:1/8] [A,,A,] | %11
[M:3/4] [A,,A,]2 [A,,A,] [A,,A,]2 [A,,A,] | [A,,A,]2 [A,,A,] [A,,A,]2 [A,,A,] | %13
 [A,,A,]2 [A,,A,] [A,,A,]2 [A,,A,] |[M:5/8] [D,D]3- [D,B,D]2 |[M:1/8] D, | %16
[M:3/4] =D,2 D, B,,2 B,, | E,2 [E,B,] E,2 E, | B,,2 B,, B,,2 B,, | z2 z B,3 | [A,,A,]3 [A,,E,]3 | %21
 [A,,E,]3 [A,,A,]3 | [A,,A,][A,,A,] .[A,,A,]2[K:treble] B[K:bass]A,, | [E,B,D]2 [E,B,] .[E,B,]3 | %24
 [E,B,E]3 [E,A,E]3 | [E,G,E]3 [E,A,C]3 | [E,B,D][E,B,D] [E,B,D]D E[E,G,D] | %27
 [A,,A,]2 [A,,A,] .[A,,A,]3 | [A,,A,]3 [A,,E,]3 | [A,,E,]3 [A,,A,]3 | %30
 [A,,A,][A,,A,] [A,,A,] [A,,E,]2 [A,,A,] | [D,A,]2 [D,A,] [D,A,]2 [D,A,] | %32
 [E,A,E]2 [E,A,E] [E,A,C]2 [E,A,E] | [F,A,=D]2 [F,A,D] [B,,B,]3 | %34
 [E,B,D][E,B,D] [E,A,C] [E,G,D]2 [E,G,E] |[M:5/8] [A,,A,]-[A,,A,]- [A,,A,]3 |] %36
V:3
 x6 | x6 | x6 | x6 |[M:5/8] F,3 z2 |[M:1/8] x |[M:3/4] x6 | x6 | x6 |[M:5/8] x5 |[M:1/8] x | %11
[M:3/4] x6 | x6 | x6 |[M:5/8] F,3 z2 |[M:1/8] x |[M:3/4] x6 | x6 | x6 | E,6 | x6 | x6 | %22
 z2 z .[A,,E,]3[K:treble][K:bass] | x6 | x6 | x6 | z2 z .[E,G,]3 | x6 | x6 | x6 | x6 | x6 | x6 | %33
 x6 | x6 |[M:5/8] x5 |] %36
V:4
 x6 | x6 | x6 | x6 |[M:5/8] x5 |[M:1/8] x |[M:3/4] x6 | x6 | x6 |[M:5/8] x5 |[M:1/8] x | %11
[M:3/4] x6 | x6 | x6 |[M:5/8] x5 |[M:1/8] x |[M:3/4] x6 | x6 | x6 | G,4 z2 | x6 | x6 | z2 z .C3 | %23
 z2 D .D3 | x6 | x6 | x6 | C2 C .C3 | x6 | x6 | x6 | F2 z2 z2 | x6 | x6 | x6 |[M:5/8] x5 |] %36

